svg/Tango/apps/system-file-manager.svg

<?xml version="1.0" encoding="UTF-8" standalone="no"?>
<!-- Created with Inkscape (http://www.inkscape.org/) -->
<svg
   xmlns:dc="http://purl.org/dc/elements/1.1/"
   xmlns:cc="http://creativecommons.org/ns#"
   xmlns:rdf="http://www.w3.org/1999/02/22-rdf-syntax-ns#"
   xmlns:svg="http://www.w3.org/2000/svg"
   xmlns="http://www.w3.org/2000/svg"
   xmlns:xlink="http://www.w3.org/1999/xlink"
   xmlns:sodipodi="http://sodipodi.sourceforge.net/DTD/sodipodi-0.dtd"
   xmlns:inkscape="http://www.inkscape.org/namespaces/inkscape"
   width="48px"
   height="48px"
   id="svg1288"
   sodipodi:version="0.32"
   inkscape:version="0.46"
   sodipodi:docbase="/home/jimmac/src/cvs/tango-icon-theme/scalable/apps"
   sodipodi:docname="system-file-manager.svg"
   inkscape:output_extension="org.inkscape.output.svg.inkscape">
  <defs
     id="defs3">
    <inkscape:perspective
       sodipodi:type="inkscape:persp3d"
       inkscape:vp_x="0 : 24 : 1"
       inkscape:vp_y="0 : 1000 : 0"
       inkscape:vp_z="48 : 24 : 1"
       inkscape:persp3d-origin="24 : 16 : 1"
       id="perspective43" />
    <radialGradient
       inkscape:collect="always"
       xlink:href="#linearGradient5060"
       id="radialGradient5031"
       gradientUnits="userSpaceOnUse"
       gradientTransform="matrix(-2.774389,0,0,1.969706,112.7623,-872.8854)"
       cx="605.71429"
       cy="486.64789"
       fx="605.71429"
       fy="486.64789"
       r="117.14286" />
    <linearGradient
       inkscape:collect="always"
       id="linearGradient5060">
      <stop
         style="stop-color:black;stop-opacity:1;"
         offset="0"
         id="stop5062" />
      <stop
         style="stop-color:black;stop-opacity:0;"
         offset="1"
         id="stop5064" />
    </linearGradient>
    <radialGradient
       inkscape:collect="always"
       xlink:href="#linearGradient5060"
       id="radialGradient5029"
       gradientUnits="userSpaceOnUse"
       gradientTransform="matrix(2.774389,0,0,1.969706,-1891.633,-872.8854)"
       cx="605.71429"
       cy="486.64789"
       fx="605.71429"
       fy="486.64789"
       r="117.14286" />
    <linearGradient
       id="linearGradient5048">
      <stop
         style="stop-color:black;stop-opacity:0;"
         offset="0"
         id="stop5050" />
      <stop
         id="stop5056"
         offset="0.5"
         style="stop-color:black;stop-opacity:1;" />
      <stop
         style="stop-color:black;stop-opacity:0;"
         offset="1"
         id="stop5052" />
    </linearGradient>
    <linearGradient
       inkscape:collect="always"
       xlink:href="#linearGradient5048"
       id="linearGradient5027"
       gradientUnits="userSpaceOnUse"
       gradientTransform="matrix(2.774389,0,0,1.969706,-1892.179,-872.8854)"
       x1="302.85715"
       y1="366.64789"
       x2="302.85715"
       y2="609.50507" />
    <linearGradient
       id="linearGradient3085">
      <stop
         id="stop3087"
         offset="0"
         style="stop-color:#b47002;stop-opacity:1;" />
      <stop
         id="stop3089"
         offset="1.0000000"
         style="stop-color:#6b4301;stop-opacity:1.0000000;" />
    </linearGradient>
    <linearGradient
       inkscape:collect="always"
       id="linearGradient2368">
      <stop
         style="stop-color:#ffffff;stop-opacity:1;"
         offset="0"
         id="stop2370" />
      <stop
         style="stop-color:#ffffff;stop-opacity:0;"
         offset="1"
         id="stop2372" />
    </linearGradient>
    <linearGradient
       inkscape:collect="always"
       id="linearGradient2182">
      <stop
         style="stop-color:#000000;stop-opacity:1;"
         offset="0"
         id="stop2184" />
      <stop
         style="stop-color:#000000;stop-opacity:0;"
         offset="1"
         id="stop2186" />
    </linearGradient>
    <radialGradient
       inkscape:collect="always"
       xlink:href="#linearGradient2182"
       id="radialGradient2188"
       cx="25.357143"
       cy="36.500000"
       fx="25.357143"
       fy="36.500000"
       r="14.714286"
       gradientTransform="matrix(1.000000,0.000000,0.000000,0.500000,-3.881442e-16,18.25000)"
       gradientUnits="userSpaceOnUse" />
    <linearGradient
       inkscape:collect="always"
       xlink:href="#linearGradient2368"
       id="linearGradient2374"
       x1="14.680550"
       y1="7.2187386"
       x2="38.694427"
       y2="57.468739"
       gradientUnits="userSpaceOnUse" />
    <linearGradient
       gradientUnits="userSpaceOnUse"
       y2="19.168869"
       x2="25.249994"
       y1="23.568451"
       x1="25.249994"
       id="linearGradient3091"
       xlink:href="#linearGradient3085"
       inkscape:collect="always" />
    <linearGradient
       gradientTransform="translate(0.000000,13.11256)"
       y2="19.168869"
       x2="25.249994"
       y1="23.568451"
       x1="25.249994"
       gradientUnits="userSpaceOnUse"
       id="linearGradient3095"
       xlink:href="#linearGradient3085"
       inkscape:collect="always" />
  </defs>
  <sodipodi:namedview
     stroke="#e9b96e"
     fill="#e9b96e"
     id="base"
     pagecolor="#ffffff"
     bordercolor="#666666"
     borderopacity="0.14117647"
     inkscape:pageopacity="0.0"
     inkscape:pageshadow="2"
     inkscape:zoom="1"
     inkscape:cx="-125.54594"
     inkscape:cy="-13.769376"
     inkscape:current-layer="layer1"
     showgrid="false"
     inkscape:grid-bbox="true"
     inkscape:document-units="px"
     showborder="true"
     inkscape:showpageshadow="false"
     inkscape:window-width="878"
     inkscape:window-height="818"
     inkscape:window-x="370"
     inkscape:window-y="30" />
  <metadata
     id="metadata4">
    <rdf:RDF>
      <cc:Work
         rdf:about="">
        <dc:format>image/svg+xml</dc:format>
        <dc:type
           rdf:resource="http://purl.org/dc/dcmitype/StillImage" />
        <dc:title>File Manager</dc:title>
        <dc:creator>
          <cc:Agent>
            <dc:title>Jakub Steiner</dc:title>
          </cc:Agent>
        </dc:creator>
        <dc:source>http://jimmac.musichall.cz</dc:source>
        <dc:subject>
          <rdf:Bag>
            <rdf:li>file</rdf:li>
            <rdf:li>manager</rdf:li>
            <rdf:li>copy</rdf:li>
            <rdf:li>move</rdf:li>
            <rdf:li>filesystem</rdf:li>
          </rdf:Bag>
        </dc:subject>
        <cc:license
           rdf:resource="http://creativecommons.org/licenses/publicdomain/" />
      </cc:Work>
      <cc:License
         rdf:about="http://creativecommons.org/licenses/publicdomain/">
        <cc:permits
           rdf:resource="http://creativecommons.org/ns#Reproduction" />
        <cc:permits
           rdf:resource="http://creativecommons.org/ns#Distribution" />
        <cc:permits
           rdf:resource="http://creativecommons.org/ns#DerivativeWorks" />
      </cc:License>
    </rdf:RDF>
  </metadata>
  <g
     id="layer1"
     inkscape:label="Layer 1"
     inkscape:groupmode="layer">
    <g
       id="g5022"
       transform="matrix(1.949531e-2,0,0,2.086758e-2,42.61888,39.78964)">
      <rect
         y="-150.69685"
         x="-1559.2523"
         height="478.35718"
         width="1339.6335"
         id="rect4173"
         style="opacity:0.40206185;color:black;fill:url(#linearGradient5027);fill-opacity:1;fill-rule:nonzero;stroke:none;stroke-width:1;stroke-linecap:round;stroke-linejoin:miter;marker:none;marker-start:none;marker-mid:none;marker-end:none;stroke-miterlimit:4;stroke-dasharray:none;stroke-dashoffset:0;stroke-opacity:1;visibility:visible;display:inline;overflow:visible" />
      <path
         sodipodi:nodetypes="cccc"
         id="path5058"
         d="M -219.61876,-150.68038 C -219.61876,-150.68038 -219.61876,327.65041 -219.61876,327.65041 C -76.744594,328.55086 125.78146,220.48075 125.78138,88.454235 C 125.78138,-43.572302 -33.655436,-150.68036 -219.61876,-150.68038 z "
         style="opacity:0.40206185;color:black;fill:url(#radialGradient5029);fill-opacity:1;fill-rule:nonzero;stroke:none;stroke-width:1;stroke-linecap:round;stroke-linejoin:miter;marker:none;marker-start:none;marker-mid:none;marker-end:none;stroke-miterlimit:4;stroke-dasharray:none;stroke-dashoffset:0;stroke-opacity:1;visibility:visible;display:inline;overflow:visible" />
      <path
         style="opacity:0.40206185;color:black;fill:url(#radialGradient5031);fill-opacity:1;fill-rule:nonzero;stroke:none;stroke-width:1;stroke-linecap:round;stroke-linejoin:miter;marker:none;marker-start:none;marker-mid:none;marker-end:none;stroke-miterlimit:4;stroke-dasharray:none;stroke-dashoffset:0;stroke-opacity:1;visibility:visible;display:inline;overflow:visible"
         d="M -1559.2523,-150.68038 C -1559.2523,-150.68038 -1559.2523,327.65041 -1559.2523,327.65041 C -1702.1265,328.55086 -1904.6525,220.48075 -1904.6525,88.454235 C -1904.6525,-43.572302 -1745.2157,-150.68036 -1559.2523,-150.68038 z "
         id="path5018"
         sodipodi:nodetypes="cccc" />
    </g>
    <path
       style="stroke-opacity:1.0000000;stroke-linejoin:round;stroke-linecap:round;stroke-width:1.0000000px;stroke:#444329;fill-rule:evenodd;fill-opacity:1.0;fill:#c17d11"
       d="M 10.625000,11.625000 L 10.625000,42.625000 L 39.625000,42.625000 L 39.625000,11.625000 L 35.625000,7.6250000 L 14.625000,7.6250000 L 10.625000,11.625000 z "
       id="path1414" />
    <path
       style="stroke-opacity:1.0000000;stroke-linejoin:miter;stroke-linecap:butt;stroke-width:1.0000000px;stroke:none;fill-rule:evenodd;fill-opacity:1.0000000;fill:#e9b96e"
       d="M 14.849242,8.2252435 L 11.126209,12.041107 L 12.314694,12.291107 L 38.129165,12.291107 L 39.130150,12.041107 L 35.266951,8.2252435 L 14.849242,8.2252435 z "
       id="path2380"
       sodipodi:nodetypes="ccccccc" />
    <rect
       ry="0.92857140"
       rx="0.92857140"
       y="28.828430"
       x="14.750000"
       height="10.055458"
       width="21.000000"
       id="rect3083"
       style="opacity:1.0000000;color:#000000;fill:#e9b96e;fill-opacity:1.0000000;fill-rule:evenodd;stroke:#e9b96e;stroke-width:1.0000000px;stroke-linecap:round;stroke-linejoin:round;marker:none;marker-start:none;marker-mid:none;marker-end:none;stroke-miterlimit:4.0000000;stroke-dasharray:none;stroke-dashoffset:0.0000000;stroke-opacity:1.0000000;visibility:visible;display:inline;overflow:visible;font-family:Bitstream Vera Sans" />
    <rect
       style="opacity:1.0000000;color:#000000;fill:#b67610;fill-opacity:1.0000000;fill-rule:evenodd;stroke:#7b500b;stroke-width:1.0000000px;stroke-linecap:round;stroke-linejoin:round;marker:none;marker-start:none;marker-mid:none;marker-end:none;stroke-miterlimit:4.0000000;stroke-dasharray:none;stroke-dashoffset:0.0000000;stroke-opacity:1.0000000;visibility:visible;display:inline;overflow:visible;font-family:Bitstream Vera Sans"
       id="rect1416"
       width="21.000000"
       height="10.055458"
       x="14.573223"
       y="28.474876"
       rx="0.92857140"
       ry="0.92857140" />
    <path
       id="path2358"
       d="M 11.680550,12.062494 L 11.680550,41.652758 L 38.569426,41.652758 L 38.569426,12.062494 L 35.166650,8.6597185 L 15.083327,8.6597185 L 11.680550,12.062494 z "
       style="stroke-opacity:1.0000000;stroke-linejoin:miter;stroke-linecap:butt;stroke-width:1.0000000;stroke:url(#linearGradient2374);fill-rule:evenodd;fill-opacity:1.0;fill:none;stroke-dasharray:none;stroke-miterlimit:4.0000000"
       sodipodi:nodetypes="ccccccc" />
    <rect
       style="opacity:1.0000000;color:#000000;fill:#e9b96e;fill-opacity:1.0000000;fill-rule:evenodd;stroke:#e9b96e;stroke-width:1.0000000px;stroke-linecap:round;stroke-linejoin:round;marker:none;marker-start:none;marker-mid:none;marker-end:none;stroke-miterlimit:4.0000000;stroke-dasharray:none;stroke-dashoffset:0.0000000;stroke-opacity:1.0000000;visibility:visible;display:inline;overflow:visible;font-family:Bitstream Vera Sans"
       id="rect3081"
       width="21.000000"
       height="10.055458"
       x="14.750000"
       y="15.715860"
       rx="0.92857140"
       ry="0.92857140" />
    <rect
       ry="0.92857140"
       rx="0.92857140"
       y="15.362308"
       x="14.573223"
       height="10.055458"
       width="21.000000"
       id="rect3077"
       style="font-family:Bitstream Vera Sans;overflow:visible;display:inline;visibility:visible;stroke-opacity:1.0000000;stroke-dashoffset:0.0000000;stroke-dasharray:none;stroke-miterlimit:4.0000000;marker-end:none;marker-mid:none;marker-start:none;marker:none;stroke-linejoin:round;stroke-linecap:round;stroke-width:1.0000000px;stroke:#7b500b;fill-rule:evenodd;fill-opacity:1.0000000;fill:#b67610;color:#000000;opacity:1.0000000" />
    <rect
       style="opacity:1.0000000;color:#000000;fill:url(#linearGradient3091);fill-opacity:1.0000000;fill-rule:evenodd;stroke:#7b500b;stroke-width:0.99999923px;stroke-linecap:round;stroke-linejoin:round;marker:none;marker-start:none;marker-mid:none;marker-end:none;stroke-miterlimit:4.0000000;stroke-dasharray:none;stroke-dashoffset:0.0000000;stroke-opacity:1.0000000;visibility:visible;display:inline;overflow:visible;font-family:Bitstream Vera Sans"
       id="rect3079"
       width="6.7473836"
       height="3.8216934"
       x="21.743721"
       y="21.569220"
       rx="0.28662863"
       ry="0.33735332" />
    <rect
       ry="0.33735332"
       rx="0.28662863"
       y="34.681808"
       x="21.743721"
       height="3.8216934"
       width="6.7473836"
       id="rect3093"
       style="opacity:1.0000000;color:#000000;fill:url(#linearGradient3095);fill-opacity:1.0000000;fill-rule:evenodd;stroke:#7b500b;stroke-width:0.99999923px;stroke-linecap:round;stroke-linejoin:round;marker:none;marker-start:none;marker-mid:none;marker-end:none;stroke-miterlimit:4.0000000;stroke-dasharray:none;stroke-dashoffset:0.0000000;stroke-opacity:1.0000000;visibility:visible;display:inline;overflow:visible;font-family:Bitstream Vera Sans" />
  </g>
</svg>

<svg xmlns="http://www.w3.org/2000/svg" xmlns:xlink="http://www.w3.org/1999/xlink" viewBox="0 0 48 48"><defs><linearGradient gradientUnits="userSpaceOnUse" y2="19.17" x2="0" y1="23.568" id="6" xlink:href="#4"/><linearGradient id="5" x1="14.681" y1="7.219" x2="38.694" y2="57.47" gradientUnits="userSpaceOnUse"><stop stop-color="#fff"/><stop offset="1" stop-color="#fff" stop-opacity="0"/></linearGradient><linearGradient id="3" gradientUnits="userSpaceOnUse" gradientTransform="matrix(2.77439 0 0 1.96971-1892.18-872.89)" y1="366.65" x2="0" y2="609.51"><stop stop-opacity="0"/><stop offset=".5"/><stop offset="1" stop-opacity="0"/></linearGradient><linearGradient id="4"><stop stop-color="#b47002"/><stop offset="1" stop-color="#6b4301"/></linearGradient><linearGradient y2="32.28" x2="0" y1="36.681" gradientUnits="userSpaceOnUse" id="7" xlink:href="#4"/><linearGradient id="1"><stop/><stop offset="1" stop-opacity="0"/></linearGradient><radialGradient xlink:href="#1" id="0" gradientUnits="userSpaceOnUse" gradientTransform="matrix(-2.77439 0 0 1.96971 112.76-872.89)" cx="605.71" cy="486.65" r="117.14"/><radialGradient xlink:href="#1" id="2" gradientUnits="userSpaceOnUse" gradientTransform="matrix(2.77439 0 0 1.96971-1891.63-872.89)" cx="605.71" cy="486.65" r="117.14"/></defs><g transform="matrix(.0195 0 0 .02087 42.619 39.79)" color="#000"><path opacity=".402" fill="url(#3)" d="m-1559.25-150.7h1339.63v478.36h-1339.63z"/><path d="m-219.62-150.68c0 0 0 478.33 0 478.33 142.87.9 345.4-107.17 345.4-239.2 0-132.03-159.44-239.13-345.4-239.13" opacity=".402" fill="url(#2)"/><path d="m-1559.25-150.68c0 0 0 478.33 0 478.33-142.87.9-345.4-107.17-345.4-239.2 0-132.03 159.44-239.13 345.4-239.13" opacity=".402" fill="url(#0)"/></g><g fill-rule="evenodd"><path d="m10.625 11.625v31h29v-31l-4-4h-21l-4 4z" fill="#c17d11" stroke="#444329" stroke-linejoin="round" stroke-linecap="round"/><g fill="#e9b96e"><path d="m14.849 8.225l-3.723 3.816 1.188.25h25.814l1-.25-3.863-3.816h-20.418"/><rect rx=".929" y="28.828" x="14.75" height="10.06" width="21" color="#000" stroke-linecap="round" stroke-linejoin="round" stroke="#e9b96e"/></g><rect width="21" height="10.06" x="14.573" y="28.475" rx=".929" color="#000" stroke-linecap="round" fill="#b67610" stroke-linejoin="round" stroke="#7b500b"/><path d="m11.681 12.06v29.59h26.889v-29.59l-3.403-3.403h-20.08l-3.403 3.403z" fill="none" stroke="url(#5)"/><g stroke-linejoin="round" stroke-linecap="round" color="#000"><rect width="21" height="10.06" x="14.75" y="15.716" rx=".929" fill="#e9b96e" stroke="#e9b96e"/><g stroke="#7b500b"><rect rx=".929" y="15.362" x="14.573" height="10.06" width="21" fill="#b67610"/><rect width="6.747" height="3.822" x="21.744" y="21.569" rx=".287" ry=".337" fill="url(#6)"/><rect ry=".337" rx=".287" y="34.682" x="21.744" height="3.822" width="6.747" fill="url(#7)"/></g></g></g></svg>
